public/assets/images/document.svg

<svg width="241" height="176" viewBox="0 0 241 176" fill="none" xmlns="http://www.w3.org/2000/svg">
<mask id="mask0_705_347" style="mask-type:alpha" maskUnits="userSpaceOnUse" x="0" y="0" width="250" height="250">
<rect width="250" height="250" fill="#D9D9D9"/>
</mask>
<g mask="url(#mask0_705_347)">
<path d="M179.689 180.287L161.781 162.379V89.4027H117.01V44.6319H63.2853V63.8834L45.3769 45.9751V44.6319C45.3769 39.7072 47.1305 35.4912 50.6375 31.9842C54.1446 28.4772 58.3605 26.7236 63.2853 26.7236H125.964L179.689 80.4486V180.287ZM63.2853 169.99H118.801L63.2853 114.474V169.99ZM175.212 226.401L136.709 187.898H63.2853C58.3605 187.898 54.1446 186.145 50.6375 182.638C47.1305 179.131 45.3769 174.915 45.3769 169.99V96.566L-2.08008 49.109L10.4557 36.5732L187.748 213.865L175.212 226.401ZM27.4686 223.715C22.5438 223.715 18.3279 221.962 14.8209 218.454C11.3138 214.947 9.56032 210.732 9.56032 205.807V89.4027H27.4686V205.807H134.918V223.715H27.4686Z" fill="#3B3C33"/>
</g>
</svg>

<svg xmlns="http://www.w3.org/2000/svg" width="241" height="176" fill="none" viewBox="0 0 241 176"><mask id="a" width="250" height="250" x="0" y="0" maskUnits="userSpaceOnUse" style="mask-type:alpha"><path fill="#d9d9d9" d="M0 0h250v250H0z"/></mask><g mask="url(#a)"><path fill="#3b3c33" d="m179.689 180.287-17.908-17.908V89.403H117.01V44.632H63.285v19.251L45.377 45.975v-1.343q0-7.387 5.26-12.648 5.262-5.26 12.648-5.26h62.679l53.725 53.725zM63.285 169.99h55.516l-55.516-55.516zm111.927 56.411-38.503-38.503H63.285q-7.386 0-12.647-5.26t-5.261-12.648V96.566L-2.08 49.109l12.536-12.536 177.292 177.292zm-147.743-2.686q-7.387 0-12.648-5.261-5.26-5.26-5.26-12.647V89.403h17.908v116.404h107.449v17.908z"/></g></svg>
